assets/Right arrow curving down/Flat/right_arrow_curving_down_flat.svg

<svg width="32" height="32" viewBox="0 0 32 32" fill="none" xmlns="http://www.w3.org/2000/svg">
<path d="M2 6C2 3.79086 3.79086 2 6 2H26C28.2091 2 30 3.79086 30 6V26C30 28.2091 28.2091 30 26 30H6C3.79086 30 2 28.2091 2 26V6Z" fill="#00A6ED"/>
<path d="M9 8C9 7.44772 9.44772 7 10 7H11.9926C11.9967 7 12 7.00332 12 7.00742C12 7.0117 12.0036 7.01509 12.0079 7.01483C12.1706 7.00499 12.3347 7 12.5 7C16.6421 7 20 10.134 20 14V19.75C20 19.8881 20.1119 20 20.25 20L22.2382 20C22.9083 20 23.2421 20.8117 22.7658 21.2831L18.5276 25.4778C18.2353 25.7671 17.7647 25.7671 17.4724 25.4778L13.2342 21.2831C12.7579 20.8117 13.0917 20 13.7618 20H15.75C15.8881 20 16 19.8881 16 19.75V14C16 12.5986 14.6974 11 12.5 11C12.3331 11 12.1714 11.0092 12.015 11.0269C12.007 11.0278 12 11.0215 12 11.0135C12 11.006 11.994 11 11.9865 11H10C9.44772 11 9 10.5523 9 10V8Z" fill="white"/>
</svg>

<svg xmlns="http://www.w3.org/2000/svg" width="32" height="32" fill="none"><path fill="#00A6ED" d="M2 6a4 4 0 0 1 4-4h20a4 4 0 0 1 4 4v20a4 4 0 0 1-4 4H6a4 4 0 0 1-4-4V6Z"/><path fill="#fff" d="M9 8a1 1 0 0 1 1-1h1.993c.004 0 .007.003.007.007 0 .005.004.008.008.008.163-.01.327-.015.492-.015 4.142 0 7.5 3.134 7.5 7v5.75c0 .138.112.25.25.25h1.988a.75.75 0 0 1 .528 1.283l-4.238 4.195a.75.75 0 0 1-1.056 0l-4.238-4.195A.75.75 0 0 1 13.762 20h1.988a.25.25 0 0 0 .25-.25V14c0-1.401-1.303-3-3.5-3-.167 0-.329.01-.485.027a.014.014 0 0 1-.015-.013.013.013 0 0 0-.014-.014H10a1 1 0 0 1-1-1V8Z"/></svg>
